teeny/solid/layers-union.svg

<svg width="15" height="15" viewBox="0 0 15 15" fill="none" xmlns="http://www.w3.org/2000/svg">
<path d="M5.5 0C4.67157 0 4 0.671573 4 1.5V4H1.5C0.671573 4 0 4.67157 0 5.5V13.5C0 14.3284 0.671573 15 1.5 15H9.5C10.3284 15 11 14.3284 11 13.5V11H13.5C14.3284 11 15 10.3284 15 9.5V1.5C15 0.671573 14.3284 0 13.5 0H5.5Z" fill="black"/>
</svg>

<svg viewBox="0 0 15 15" xmlns="http://www.w3.org/2000/svg"><path d="M5.5 0C4.67 0 4 .67 4 1.5V4H1.5C.67 4 0 4.67 0 5.5v8c0 .82.67 1.5 1.5 1.5h8c.82 0 1.5-.68 1.5-1.5V11h2.5c.82 0 1.5-.68 1.5-1.5v-8c0-.83-.68-1.5-1.5-1.5h-8Z"/></svg>
